X: 5484
T: Bunker Hill
R: reel
M: 4/4
K: Dmixolydian
cA|:G~E3 D3 G|FGAB BcBc|ABAG E~G3|ABcA d2 cA|
GECE {G}EDDG|(3EFG AB c2 Bc|dBcA BGGB|(3AAB cA d2 cA:|
|:G~c3 e~c3|GccB cBAG|Ad (3ddd fd (3ddd|Add^c d^cAG|
FGAB cAdB|cAdB c2 Bc|dB (3cBA B~G3|1 ABcA d2 cA:|2 ABcA d2 ag||
|:fd (3ddd fdad|fadf a2 gf|ge (3eee gebe|gbeg b2 ag|
fd (3ddd dcAB|cAdB c2 Bc|(3dcB cA BGFG|1 ABcA d2 ag:|2 ABcA d2 cA||

